dist/images/rating.svg

<svg width="64" height="64" viewBox="0 0 64 64" fill="none" xmlns="http://www.w3.org/2000/svg">
<g clip-path="url(#clip0)">
<path d="M32.0004 39.8677C37.1076 39.8672 42.2165 37.923 46.1045 34.0352C49.1661 30.975 51.1141 27.1008 51.738 22.8309C52.3497 18.6442 51.6441 14.4575 49.6972 10.7235C49.378 10.1113 48.623 9.87403 48.0109 10.193C47.3986 10.5123 47.1611 11.2672 47.4804 11.8794C51.016 18.6608 49.7529 26.8538 44.3369 32.267C44.3214 32.2825 44.3055 32.2973 44.29 32.3128C43.604 28.9962 41.586 26.0645 38.6959 24.2313C39.9116 22.7423 40.6424 20.8425 40.6424 18.7748C40.6424 14.0115 36.7656 10.1365 32.0002 10.1365C27.233 10.1365 23.3546 14.0117 23.3546 18.7748C23.3546 20.8425 24.0856 22.7423 25.302 24.2314C22.4134 26.065 20.3964 28.9965 19.7105 32.3127C19.6949 32.2972 19.679 32.2823 19.6635 32.2668C16.3675 28.9725 14.5524 24.5932 14.5524 19.9353C14.5524 15.2775 16.3675 10.8982 19.6635 7.6039C25.0827 2.18715 33.2831 0.927279 40.0691 4.46878C40.681 4.78815 41.4362 4.55103 41.7556 3.9389C42.075 3.32678 41.8379 2.57165 41.2257 2.25228C37.544 0.330904 33.241 -0.395596 29.1094 0.205904C24.8355 0.828654 20.958 2.77528 17.8961 5.83553C14.1276 9.60215 12.0522 14.6095 12.0522 19.9353C12.0522 25.2612 14.1276 30.2685 17.896 34.0349C21.785 37.9238 26.892 39.8682 32.0004 39.8677ZM32.0004 12.6367C35.387 12.6367 38.1422 15.3903 38.1422 18.7748C38.1422 22.1613 35.387 24.9165 32.0004 24.9165C28.6117 24.9165 25.8549 22.1614 25.8549 18.7748C25.8549 15.3902 28.6117 12.6367 32.0004 12.6367ZM27.2454 25.9872C28.6106 26.8894 30.2447 27.4167 32.0004 27.4167C33.7551 27.4167 35.3884 26.8895 36.753 25.9874C39.8101 27.6413 41.8129 30.7597 42.0285 34.208C36.036 38.4212 27.9649 38.4213 21.9722 34.208C22.1877 30.7599 24.1896 27.6414 27.2454 25.9872Z" fill="#0094FF"/>
<path d="M45.2252 7.97711C45.4131 7.97711 45.6039 7.93461 45.7834 7.84486C46.4009 7.53611 46.6511 6.78523 46.3424 6.16773L46.3389 6.16061C46.0301 5.54286 45.2812 5.29636 44.6635 5.60498C44.046 5.91373 43.7975 6.66811 44.1062 7.28561C44.3252 7.72386 44.7667 7.97711 45.2252 7.97711Z" fill="#0094FF"/>
<path d="M42.4025 49.5404L36.0822 48.4676L33.1079 42.7902C32.8922 42.3784 32.4657 42.1202 32.0007 42.1202C31.5357 42.1202 31.1092 42.3784 30.8934 42.7902L27.9192 48.4675L21.5953 49.5402C21.1366 49.6181 20.7591 49.9441 20.6154 50.3866C20.4716 50.829 20.5855 51.3146 20.9109 51.6471L25.3949 56.2289L24.4639 62.5682C24.3964 63.0282 24.5896 63.4877 24.9658 63.761C25.3419 64.0346 25.8385 64.0764 26.2553 63.8701L32.0005 61.0264L37.746 63.8701C37.9217 63.957 38.1114 63.9998 38.3004 63.9998C38.5599 63.9998 38.8179 63.9191 39.0355 63.761C39.4115 63.4876 39.6049 63.0281 39.5374 62.5682L38.6063 56.2286L43.087 51.6469C43.4123 51.3144 43.5259 50.8287 43.3822 50.3864C43.2384 49.9441 42.861 49.6182 42.4025 49.5404ZM36.3858 54.9235C36.1129 55.2026 35.986 55.5931 36.0427 55.9792L36.7172 60.5714L32.555 58.5114C32.3803 58.4249 32.1904 58.3816 32.0005 58.3816C31.8107 58.3816 31.6208 58.4249 31.446 58.5114L27.284 60.5714L27.9584 55.9792C28.0152 55.5929 27.888 55.2024 27.615 54.9232L24.3684 51.6059L28.9479 50.829C29.3328 50.7637 29.665 50.5224 29.8462 50.1766L32.0005 46.0641L34.1549 50.1765C34.336 50.5222 34.6683 50.7636 35.053 50.8289L39.6303 51.6057L36.3858 54.9235Z" fill="#0094FF"/>
<path d="M19.2267 40.2812L14.8349 39.5346L12.7717 35.5937C12.5561 35.1818 12.1296 34.9236 11.6646 34.9235C11.6644 34.9235 11.6643 34.9235 11.6642 34.9235C11.1994 34.9235 10.7729 35.1815 10.5571 35.5931L8.49031 39.5346L4.10144 40.2812C3.64306 40.3592 3.26581 40.6852 3.12218 41.1275C2.97856 41.5697 3.09231 42.0552 3.41743 42.3877L6.52956 45.5697L5.88231 49.9708C5.81468 50.431 6.00793 50.8905 6.38406 51.1638C6.76031 51.4375 7.25718 51.4792 7.67369 51.273L11.6642 49.2973L15.6547 51.273C15.8303 51.3598 16.0202 51.4027 16.2092 51.4027C16.4687 51.4027 16.7267 51.322 16.9443 51.1638C17.3204 50.8903 17.5137 50.4308 17.4461 49.9708L16.7988 45.5697L19.9109 42.3877C20.2361 42.0552 20.3498 41.5698 20.2061 41.1275C20.0624 40.6852 19.6852 40.3591 19.2267 40.2812ZM14.5782 44.2646C14.3052 44.5438 14.1783 44.9343 14.2352 45.3206L14.6253 47.9737L12.2188 46.7823C12.0441 46.6958 11.8542 46.6526 11.6642 46.6526C11.4742 46.6526 11.2843 46.6958 11.1096 46.7823L8.70306 47.9737L9.09319 45.3206C9.15006 44.9343 9.02306 44.5438 8.75019 44.2646L6.87344 42.3457L9.51968 41.8956C9.90406 41.8302 10.2361 41.5891 10.4172 41.2437L11.6633 38.8671L12.9072 41.2431C13.0882 41.5888 13.4204 41.8302 13.8052 41.8956L16.4546 42.346L14.5782 44.2646Z" fill="#0094FF"/>
<path d="M60.8784 41.1275C60.7348 40.6852 60.3575 40.3592 59.8992 40.2812L55.5103 39.5346L53.4436 35.5931C53.2277 35.1815 52.8013 34.9235 52.3364 34.9235C51.8717 34.9235 51.4452 35.1815 51.2293 35.5931L49.1625 39.5346L44.7738 40.2812C44.3154 40.3592 43.9382 40.6852 43.7945 41.1275C43.6509 41.5697 43.7647 42.0552 44.0898 42.3877L47.2019 45.5697L46.5547 49.9708C46.487 50.431 46.6803 50.8905 47.0564 51.1638C47.4325 51.4375 47.9296 51.4792 48.3461 51.273L52.3365 49.2973L56.327 51.273C56.5027 51.3598 56.6924 51.4027 56.8815 51.4027C57.141 51.4027 57.399 51.322 57.6167 51.1638C57.9928 50.8903 58.186 50.4308 58.1184 49.9708L57.4712 45.5697L60.5833 42.3877C60.9082 42.0553 61.022 41.5698 60.8784 41.1275ZM55.2504 44.2646C54.9774 44.5438 54.8505 44.9343 54.9074 45.3206L55.2976 47.9737L52.891 46.7823C52.7163 46.6958 52.5264 46.6526 52.3364 46.6526C52.1464 46.6526 51.9565 46.6958 51.7818 46.7823L49.3753 47.9737L49.7654 45.3206C49.8223 44.9343 49.6953 44.5438 49.4224 44.2646L47.5458 42.3457L50.192 41.8956C50.5764 41.8302 50.9084 41.5891 51.0896 41.2437L52.3365 38.8656L53.5835 41.2437C53.7647 41.5891 54.0965 41.8302 54.481 41.8956L57.1273 42.3457L55.2504 44.2646Z" fill="#0094FF"/>
</g>
<defs>
<clipPath id="clip0">
<rect width="64" height="64" fill="white"/>
</clipPath>
</defs>
</svg>

<svg width="64" height="64" fill="none" xmlns="http://www.w3.org/2000/svg"><g clip-path="url(#clip0)" fill="#0094FF"><path d="M32 39.868c5.108 0 10.217-1.945 14.105-5.833a19.775 19.775 0 005.633-11.204 19.828 19.828 0 00-2.04-12.107 1.25 1.25 0 00-2.218 1.155c3.536 6.782 2.273 14.975-3.143 20.388l-.047.046a12.62 12.62 0 00-5.594-8.082 8.6 8.6 0 001.946-5.456c0-4.763-3.876-8.638-8.642-8.638-4.767 0-8.645 3.875-8.645 8.638 0 2.068.73 3.967 1.947 5.456a12.622 12.622 0 00-5.591 8.082l-.047-.046a17.32 17.32 0 01-5.112-12.332 17.32 17.32 0 015.111-12.331c5.42-5.417 13.62-6.677 20.406-3.135a1.25 1.25 0 101.157-2.217A20.123 20.123 0 0029.109.206a19.788 19.788 0 00-11.213 5.63 19.805 19.805 0 00-5.844 14.1 19.804 19.804 0 005.844 14.099c3.889 3.889 8.996 5.833 14.104 5.833zm0-27.231a6.147 6.147 0 016.142 6.138A6.149 6.149 0 0132 24.917a6.15 6.15 0 01-6.145-6.142c0-3.385 2.757-6.138 6.145-6.138zm-4.755 13.35c1.366.902 3 1.43 4.755 1.43a8.59 8.59 0 004.753-1.43c3.057 1.654 5.06 4.773 5.276 8.221-5.993 4.213-14.064 4.213-20.057 0a10.095 10.095 0 015.273-8.22z"/><path d="M45.225 7.977a1.25 1.25 0 001.117-1.81l-.003-.006a1.247 1.247 0 00-1.675-.556 1.253 1.253 0 00.561 2.372zM42.403 49.54l-6.32-1.072-2.975-5.678a1.25 1.25 0 00-2.215 0l-2.974 5.678-6.324 1.072a1.25 1.25 0 00-.684 2.107l4.484 4.582-.931 6.34a1.25 1.25 0 001.791 1.301l5.746-2.844 5.745 2.844a1.25 1.25 0 001.791-1.302l-.93-6.34 4.48-4.581a1.25 1.25 0 00-.684-2.107zm-6.017 5.383c-.273.28-.4.67-.343 1.056l.674 4.592-4.162-2.06a1.25 1.25 0 00-1.109 0l-4.162 2.06.674-4.592a1.25 1.25 0 00-.343-1.056l-3.247-3.317 4.58-.777a1.25 1.25 0 00.898-.652l2.155-4.113 2.154 4.112c.181.346.513.588.898.653l4.577.777-3.244 3.317zM19.227 40.281l-4.392-.746-2.063-3.941a1.25 1.25 0 00-2.215 0l-2.067 3.94-4.389.747a1.25 1.25 0 00-.684 2.107L6.53 45.57l-.648 4.4a1.25 1.25 0 001.792 1.303l3.99-1.976 3.99 1.976a1.25 1.25 0 001.792-1.302L16.8 45.57l3.112-3.182a1.25 1.25 0 00-.684-2.107zm-4.649 3.984c-.273.279-.4.67-.343 1.056l.39 2.653-2.406-1.192a1.25 1.25 0 00-1.11 0l-2.406 1.192.39-2.653a1.25 1.25 0 00-.343-1.056l-1.877-1.92 2.647-.45a1.25 1.25 0 00.897-.651l1.246-2.377 1.244 2.376c.181.346.513.587.898.653l2.65.45-1.877 1.919zm46.3-3.138a1.25 1.25 0 00-.979-.846l-4.389-.746-2.066-3.942a1.25 1.25 0 00-2.215 0l-2.066 3.942-4.39.746a1.25 1.25 0 00-.683 2.107l3.112 3.182-.647 4.4a1.25 1.25 0 001.791 1.303l3.99-1.976 3.991 1.976a1.25 1.25 0 001.791-1.302l-.647-4.401 3.112-3.182a1.25 1.25 0 00.295-1.26zm-5.628 3.138c-.273.279-.4.67-.343 1.056l.39 2.653-2.406-1.192a1.25 1.25 0 00-1.11 0l-2.406 1.192.39-2.653a1.25 1.25 0 00-.343-1.056l-1.876-1.92 2.646-.45a1.25 1.25 0 00.898-.651l1.246-2.378 1.248 2.378c.18.345.512.586.897.652l2.646.45-1.877 1.919z"/></g><defs><clipPath id="clip0"><path fill="#fff" d="M0 0h64v64H0z"/></clipPath></defs></svg>
